X: 126
T:Isha Al HaChof
T:Tora Pou Pas Stin Xenitia
C: Manos Hadjidakis 2004
F: http://www.youtube.com/watch?v=_CEi5cWo2-M
F: http://www.youtube.com/watch?v=TNmp6nKRfUk
F: http://www.youtube.com/watch?v=vzz0GNzEYQU
O:Israel/Greece
M:4/4
L:1/8
K:Dm
Q:1/4=120
%%MIDI program 70
|:DEFG ABcd|cd2c dcBA|G2c2 cBAG|A8-      |A8 :|
|:c2dc BAGA|c2dc BAGA|B2cB AGFG|B2cB AGFG|
  A2BA GFED|A2BA GFED|G2AG GFED|^CD7-    |D8 :|



